; generated by Slic3r 0.9.7 on 2012-12-11 at 16:39:54

; layer_height = 0.25
; perimeters = 3
; top_solid_layers = 3
; bottom_solid_layers = 3
; fill_density = 0.25
; perimeter_speed = 50
; infill_speed = 50
; travel_speed = 150
; scale = 1
; nozzle_diameter = 0.5
; filament_diameter = 2.85
; extrusion_multiplier = 1
; perimeters extrusion width = 0.70mm
; infill extrusion width = 0.70mm
; first layer extrusion width = 0.98mm

M104 S230 ; set temperature
M115;Display firmware
M18; Disable Motors for warm up
M104 S230; Set extruder Temp
M140 S122; Set bed temp
M109 S230; wait for extruder to reach 230 C
M190 S110; wait for Bed to reach 122 C
M104 S230; Added to correct some odd issues with the M109 command.
G4 P200 ; Wait 200 milliseconds
M17; Enable Motors
G28 ; home all axes
G4 S1 ; Wait 1 second
G1 Z10; Move z up by 10 mm
G4 S10 ; Wait 10 seconds
G28 Z0; home z axis 
G28 Z0; home z axis 
G4 S5 ; Wait 5 seconds
G90 ; use absolute coordinates
G21 ; set units to millimeters
G92 E0 ; reset extrusion distance
M82 ; use absolute distances for extrusion
G1 F1800.000 E-1.00000 ; retract
G92 E0 ; reset extrusion distance
G1 Z0.490 F9000.000 ; move to next layer (0)
G1 X39.075 Y72.570 ; move to first skirt point
G1 F1800.000 E1.00000 ; compensate retraction
G1 X40.365 Y71.930 F1200.000 E1.09700 ; skirt
G1 X42.245 Y71.150 E1.23411 ; skirt
G1 X43.725 Y70.640 E1.33956 ; skirt
G1 X45.165 Y70.230 E1.44041 ; skirt
G1 X46.215 Y69.980 E1.51312 ; skirt
G1 X48.155 Y69.620 E1.64603 ; skirt
G1 X49.225 Y69.480 E1.71872 ; skirt
G1 X50.695 Y69.350 E1.81813 ; skirt
G1 X51.255 Y69.320 E1.85591 ; skirt
G1 X52.325 Y69.300 E1.92800 ; skirt
G1 X53.725 Y69.320 E2.02231 ; skirt
G1 X54.285 Y69.350 E2.06009 ; skirt
G1 X55.665 Y69.470 E2.15340 ; skirt
G1 X135.265 Y79.040 E7.55399 ; skirt
G1 X136.735 Y79.310 E7.65466 ; skirt
G1 X137.895 Y79.600 E7.73521 ; skirt
G1 X138.445 Y79.770 E7.77399 ; skirt
G1 X139.295 Y80.070 E7.83471 ; skirt
G1 X140.235 Y80.440 E7.90275 ; skirt
G1 X141.235 Y80.900 E7.97690 ; skirt
G1 X142.435 Y81.550 E8.06883 ; skirt
G1 X143.455 Y82.190 E8.14994 ; skirt
G1 X144.195 Y82.710 E8.21087 ; skirt
G1 X144.655 Y83.060 E8.24980 ; skirt
G1 X145.505 Y83.780 E8.32484 ; skirt
G1 X146.155 Y84.380 E8.38443 ; skirt
G1 X146.995 Y85.250 E8.46589 ; skirt
G1 X147.925 Y86.330 E8.56190 ; skirt
G1 X148.275 Y86.790 E8.60083 ; skirt
G1 X148.795 Y87.530 E8.66176 ; skirt
G1 X149.435 Y88.550 E8.74287 ; skirt
G1 X150.085 Y89.750 E8.83480 ; skirt
G1 X150.335 Y90.270 E8.87367 ; skirt
G1 X150.765 Y91.290 E8.94823 ; skirt
G1 X151.215 Y92.540 E9.03773 ; skirt
G1 X151.545 Y93.690 E9.11832 ; skirt
G1 X151.675 Y94.250 E9.15704 ; skirt
G1 X151.845 Y95.130 E9.21742 ; skirt
G1 X151.945 Y95.720 E9.25773 ; skirt
G1 X152.015 Y96.290 E9.29641 ; skirt
G1 X152.095 Y97.180 E9.35661 ; skirt
G1 X152.125 Y97.770 E9.39640 ; skirt
G1 X152.125 Y99.220 E9.49407 ; skirt
G1 X152.095 Y99.810 E9.53387 ; skirt
G1 X152.015 Y100.700 E9.59406 ; skirt
G1 X151.945 Y101.270 E9.63275 ; skirt
G1 X151.845 Y101.860 E9.67306 ; skirt
G1 X151.675 Y102.740 E9.73343 ; skirt
G1 X151.545 Y103.300 E9.77216 ; skirt
G1 X151.215 Y104.450 E9.85275 ; skirt
G1 X150.915 Y105.300 E9.91347 ; skirt
G1 X150.545 Y106.240 E9.98152 ; skirt
G1 X150.085 Y107.240 E10.05566 ; skirt
G1 X149.435 Y108.440 E10.14759 ; skirt
G1 X148.785 Y109.480 E10.23021 ; skirt
G1 X148.375 Y110.060 E10.27805 ; skirt
G1 X147.885 Y110.700 E10.33235 ; skirt
G1 X147.205 Y111.510 E10.40359 ; skirt
G1 X146.605 Y112.160 E10.46318 ; skirt
G1 X146.155 Y112.610 E10.50604 ; skirt
G1 X145.065 Y113.590 E10.60478 ; skirt
G1 X144.195 Y114.280 E10.67958 ; skirt
G1 X142.935 Y115.140 E10.78234 ; skirt
G1 X142.435 Y115.440 E10.82162 ; skirt
G1 X141.595 Y115.900 E10.88613 ; skirt
G1 X140.715 Y116.340 E10.95241 ; skirt
G1 X140.235 Y116.550 E10.98770 ; skirt
G1 X139.295 Y116.920 E11.05575 ; skirt
G1 X138.445 Y117.220 E11.11647 ; skirt
G1 X137.895 Y117.390 E11.15524 ; skirt
G1 X136.735 Y117.680 E11.23579 ; skirt
G1 X135.265 Y117.950 E11.33647 ; skirt
G1 X55.355 Y127.550 E16.75803 ; skirt
G1 X53.875 Y127.670 E16.85805 ; skirt
G1 X53.045 Y127.700 E16.91400 ; skirt
G1 X51.215 Y127.670 E17.03728 ; skirt
G1 X49.625 Y127.550 E17.14469 ; skirt
G1 X48.155 Y127.370 E17.24445 ; skirt
G1 X46.215 Y127.010 E17.37737 ; skirt
G1 X44.755 Y126.650 E17.47866 ; skirt
G1 X43.725 Y126.350 E17.55093 ; skirt
G1 X42.245 Y125.840 E17.65637 ; skirt
G1 X40.825 Y125.260 E17.75970 ; skirt
G1 X40.365 Y125.060 E17.79349 ; skirt
G1 X39.395 Y124.590 E17.86609 ; skirt
G1 X37.715 Y123.680 E17.99480 ; skirt
G1 X36.795 Y123.120 E18.06735 ; skirt
G1 X36.365 Y122.840 E18.10191 ; skirt
G1 X35.155 Y121.990 E18.20152 ; skirt
G1 X33.945 Y121.040 E18.30515 ; skirt
G1 X32.785 Y120.040 E18.40831 ; skirt
G1 X32.005 Y119.300 E18.48074 ; skirt
G1 X30.945 Y118.200 E18.58364 ; skirt
G1 X29.655 Y116.690 E18.71742 ; skirt
G1 X28.995 Y115.830 E18.79045 ; skirt
G1 X28.145 Y114.620 E18.89005 ; skirt
G1 X27.305 Y113.270 E18.99716 ; skirt
G1 X27.075 Y112.860 E19.02883 ; skirt
G1 X26.395 Y111.590 E19.12587 ; skirt
G1 X25.925 Y110.620 E19.19847 ; skirt
G1 X25.145 Y108.740 E19.33558 ; skirt
G1 X24.635 Y107.260 E19.44103 ; skirt
G1 X24.225 Y105.820 E19.54188 ; skirt
G1 X23.975 Y104.770 E19.61459 ; skirt
G1 X23.695 Y103.310 E19.71473 ; skirt
G1 X23.475 Y101.760 E19.82019 ; skirt
G1 X23.345 Y100.290 E19.91960 ; skirt
G1 X23.315 Y99.730 E19.95737 ; skirt
G1 X23.295 Y98.650 E20.03014 ; skirt
G1 X23.315 Y97.260 E20.12378 ; skirt
G1 X23.345 Y96.700 E20.16155 ; skirt
G1 X23.475 Y95.230 E20.26096 ; skirt
G1 X23.695 Y93.680 E20.36642 ; skirt
G1 X23.975 Y92.220 E20.46656 ; skirt
G1 X24.225 Y91.170 E20.53927 ; skirt
G1 X24.635 Y89.730 E20.64012 ; skirt
G1 X25.145 Y88.250 E20.74557 ; skirt
G1 X25.315 Y87.820 E20.77672 ; skirt
G1 X25.925 Y86.370 E20.88268 ; skirt
G1 X26.395 Y85.400 E20.95529 ; skirt
G1 X27.305 Y83.720 E21.08399 ; skirt
G1 X28.145 Y82.370 E21.19110 ; skirt
G1 X28.995 Y81.160 E21.29070 ; skirt
G1 X29.655 Y80.300 E21.36373 ; skirt
G1 X30.945 Y78.790 E21.49751 ; skirt
G1 X32.005 Y77.690 E21.60041 ; skirt
G1 X33.125 Y76.650 E21.70337 ; skirt
G1 X34.295 Y75.660 E21.80661 ; skirt
G1 X35.155 Y75.000 E21.87963 ; skirt
G1 X36.365 Y74.150 E21.97924 ; skirt
G1 X36.795 Y73.870 E22.01381 ; skirt
G1 X37.715 Y73.310 E22.08636 ; skirt
G1 X38.959 Y72.632 E22.18179 ; skirt
G1 X39.075 Y72.570 E22.19065 ; skirt
G1 X39.485 Y73.340 F9000.000 ; move to first skirt point
G1 X40.745 Y72.720 F1200.000 E22.28525 ; skirt
G1 X42.535 Y71.980 E22.41572 ; skirt
G1 X43.555 Y71.620 E22.48858 ; skirt
G1 X44.995 Y71.190 E22.58982 ; skirt
G1 X46.775 Y70.760 E22.71317 ; skirt
G1 X48.265 Y70.490 E22.81517 ; skirt
G1 X49.695 Y70.310 E22.91226 ; skirt
G1 X50.765 Y70.220 E22.98459 ; skirt
G1 X52.345 Y70.180 E23.09105 ; skirt
G1 X54.215 Y70.220 E23.21705 ; skirt
G1 X55.565 Y70.340 E23.30835 ; skirt
G1 X135.165 Y79.910 E28.70893 ; skirt
G1 X136.535 Y80.170 E28.80287 ; skirt
G1 X137.635 Y80.440 E28.87916 ; skirt
G1 X138.185 Y80.610 E28.91794 ; skirt
G1 X139.005 Y80.900 E28.97653 ; skirt
G1 X139.905 Y81.250 E29.04158 ; skirt
G1 X140.855 Y81.690 E29.11210 ; skirt
G1 X141.985 Y82.300 E29.19860 ; skirt
G1 X142.485 Y82.600 E29.23788 ; skirt
G1 X143.425 Y83.230 E29.31411 ; skirt
G1 X144.495 Y84.060 E29.40533 ; skirt
G1 X145.565 Y85.020 E29.50216 ; skirt
G1 X145.965 Y85.420 E29.54027 ; skirt
G1 X146.545 Y86.050 E29.59795 ; skirt
G1 X147.225 Y86.860 E29.66919 ; skirt
G1 X148.085 Y88.030 E29.76700 ; skirt
G1 X148.685 Y89.000 E29.84383 ; skirt
G1 X149.295 Y90.130 E29.93034 ; skirt
G1 X149.545 Y90.650 E29.96920 ; skirt
G1 X149.955 Y91.620 E30.04014 ; skirt
G1 X150.375 Y92.800 E30.12451 ; skirt
G1 X150.545 Y93.350 E30.16329 ; skirt
G1 X150.685 Y93.890 E30.20087 ; skirt
G1 X150.985 Y95.300 E30.29797 ; skirt
G1 X151.075 Y95.820 E30.33352 ; skirt
G1 X151.175 Y96.670 E30.39117 ; skirt
G1 X151.225 Y97.250 E30.43039 ; skirt
G1 X151.245 Y97.780 E30.46612 ; skirt
G1 X151.245 Y99.200 E30.56177 ; skirt
G1 X151.225 Y99.740 E30.59817 ; skirt
G1 X151.175 Y100.320 E30.63738 ; skirt
G1 X151.075 Y101.170 E30.69504 ; skirt
G1 X150.985 Y101.690 E30.73058 ; skirt
G1 X150.685 Y103.100 E30.82769 ; skirt
G1 X150.545 Y103.640 E30.86527 ; skirt
G1 X150.375 Y104.190 E30.90405 ; skirt
G1 X149.955 Y105.370 E30.98842 ; skirt
G1 X149.735 Y105.910 E31.02770 ; skirt
G1 X149.295 Y106.860 E31.09822 ; skirt
G1 X148.685 Y107.990 E31.18472 ; skirt
G1 X148.065 Y108.980 E31.26341 ; skirt
G1 X147.195 Y110.170 E31.36271 ; skirt
G1 X146.355 Y111.150 E31.44965 ; skirt
G1 X145.565 Y111.970 E31.52635 ; skirt
G1 X144.495 Y112.930 E31.62319 ; skirt
G1 X143.425 Y113.760 E31.71441 ; skirt
G1 X142.485 Y114.390 E31.79063 ; skirt
G1 X141.985 Y114.690 E31.82991 ; skirt
G1 X141.175 Y115.130 E31.89200 ; skirt
G1 X140.335 Y115.550 E31.95526 ; skirt
G1 X139.905 Y115.740 E31.98693 ; skirt
G1 X139.365 Y115.960 E32.02621 ; skirt
G1 X138.185 Y116.380 E32.11058 ; skirt
G1 X137.635 Y116.550 E32.14936 ; skirt
G1 X136.535 Y116.820 E32.22566 ; skirt
G1 X135.165 Y117.080 E32.31959 ; skirt
G1 X55.285 Y126.680 E37.73914 ; skirt
G1 X54.215 Y126.770 E37.81148 ; skirt
G1 X53.015 Y126.820 E37.89238 ; skirt
G1 X51.235 Y126.790 E38.01230 ; skirt
G1 X50.765 Y126.770 E38.04399 ; skirt
G1 X49.695 Y126.680 E38.11632 ; skirt
G1 X48.265 Y126.500 E38.21341 ; skirt
G1 X46.775 Y126.230 E38.31541 ; skirt
G1 X45.365 Y125.900 E38.41296 ; skirt
G1 X43.555 Y125.370 E38.54000 ; skirt
G1 X42.145 Y124.860 E38.64100 ; skirt
G1 X40.745 Y124.270 E38.74334 ; skirt
G1 X39.775 Y123.800 E38.81595 ; skirt
G1 X38.535 Y123.140 E38.91057 ; skirt
G1 X36.865 Y122.120 E39.04239 ; skirt
G1 X35.985 Y121.510 E39.11451 ; skirt
G1 X34.825 Y120.630 E39.21259 ; skirt
G1 X33.385 Y119.410 E39.33973 ; skirt
G1 X32.315 Y118.380 E39.43977 ; skirt
G1 X31.575 Y117.600 E39.51220 ; skirt
G1 X30.605 Y116.470 E39.61251 ; skirt
G1 X29.475 Y115.000 E39.73741 ; skirt
G1 X28.615 Y113.730 E39.84073 ; skirt
G1 X27.845 Y112.450 E39.94135 ; skirt
G1 X27.335 Y111.500 E40.01398 ; skirt
G1 X26.715 Y110.240 E40.10858 ; skirt
G1 X25.975 Y108.450 E40.23905 ; skirt
G1 X25.615 Y107.430 E40.31191 ; skirt
G1 X25.185 Y105.990 E40.41315 ; skirt
G1 X24.755 Y104.210 E40.53650 ; skirt
G1 X24.485 Y102.720 E40.63850 ; skirt
G1 X24.305 Y101.290 E40.73559 ; skirt
G1 X24.215 Y100.220 E40.80792 ; skirt
G1 X24.175 Y98.630 E40.91506 ; skirt
G1 X24.215 Y96.770 E41.04038 ; skirt
G1 X24.305 Y95.700 E41.11271 ; skirt
G1 X24.485 Y94.270 E41.20980 ; skirt
G1 X24.835 Y92.420 E41.33663 ; skirt
G1 X25.085 Y91.370 E41.40934 ; skirt
G1 X25.485 Y89.970 E41.50741 ; skirt
G1 X25.975 Y88.540 E41.60924 ; skirt
G1 X26.715 Y86.750 E41.73971 ; skirt
G1 X27.185 Y85.780 E41.81232 ; skirt
G1 X27.845 Y84.540 E41.90694 ; skirt
G1 X28.865 Y82.870 E42.03876 ; skirt
G1 X29.695 Y81.690 E42.13594 ; skirt
G1 X30.605 Y80.520 E42.23579 ; skirt
G1 X31.305 Y79.700 E42.30841 ; skirt
G1 X31.575 Y79.390 E42.33610 ; skirt
G1 X32.605 Y78.320 E42.43615 ; skirt
G1 X33.385 Y77.580 E42.50857 ; skirt
G1 X34.515 Y76.610 E42.60889 ; skirt
G1 X35.985 Y75.480 E42.73379 ; skirt
G1 X37.255 Y74.620 E42.83711 ; skirt
G1 X38.535 Y73.850 E42.93773 ; skirt
G1 X39.369 Y73.402 E43.00150 ; skirt
G1 X39.485 Y73.340 E43.01036 ; skirt
G1 X39.905 Y74.110 F9000.000 ; move to first skirt point
G1 X41.125 Y73.510 F1200.000 E43.10194 ; skirt
G1 X42.825 Y72.810 E43.22578 ; skirt
G1 X44.215 Y72.330 E43.32484 ; skirt
G1 X45.245 Y72.030 E43.39711 ; skirt
G1 X46.935 Y71.620 E43.51425 ; skirt
G1 X48.385 Y71.360 E43.61348 ; skirt
G1 X49.455 Y71.220 E43.68617 ; skirt
G1 X50.835 Y71.100 E43.77948 ; skirt
G1 X51.285 Y71.070 E43.80986 ; skirt
G1 X52.355 Y71.050 E43.88195 ; skirt
G1 X53.695 Y71.070 E43.97223 ; skirt
G1 X54.145 Y71.100 E44.00261 ; skirt
G1 X55.455 Y71.210 E44.09116 ; skirt
G1 X135.055 Y80.780 E49.49175 ; skirt
G1 X136.345 Y81.020 E49.58014 ; skirt
G1 X136.905 Y81.150 E49.61886 ; skirt
G1 X138.175 Y81.530 E49.70816 ; skirt
G1 X139.025 Y81.840 E49.76910 ; skirt
G1 X139.955 Y82.230 E49.83704 ; skirt
G1 X140.475 Y82.480 E49.87590 ; skirt
G1 X141.535 Y83.050 E49.95697 ; skirt
G1 X142.445 Y83.620 E50.02931 ; skirt
G1 X142.915 Y83.950 E50.06799 ; skirt
G1 X143.585 Y84.460 E50.12471 ; skirt
G1 X144.545 Y85.270 E50.20932 ; skirt
G1 X145.325 Y86.020 E50.28221 ; skirt
G1 X145.715 Y86.440 E50.32082 ; skirt
G1 X146.255 Y87.070 E50.37671 ; skirt
G1 X147.035 Y88.070 E50.46214 ; skirt
G1 X147.635 Y88.950 E50.53389 ; skirt
G1 X147.935 Y89.450 E50.57317 ; skirt
G1 X148.505 Y90.510 E50.65424 ; skirt
G1 X148.925 Y91.420 E50.72175 ; skirt
G1 X149.265 Y92.270 E50.78342 ; skirt
G1 X149.455 Y92.810 E50.82198 ; skirt
G1 X149.835 Y94.080 E50.91128 ; skirt
G1 X149.965 Y94.640 E50.95000 ; skirt
G1 X150.125 Y95.470 E51.00694 ; skirt
G1 X150.205 Y95.930 E51.03839 ; skirt
G1 X150.275 Y96.500 E51.07708 ; skirt
G1 X150.375 Y97.800 E51.16491 ; skirt
G1 X150.375 Y99.190 E51.25854 ; skirt
G1 X150.275 Y100.490 E51.34637 ; skirt
G1 X150.205 Y101.060 E51.38505 ; skirt
G1 X150.125 Y101.520 E51.41650 ; skirt
G1 X149.965 Y102.350 E51.47344 ; skirt
G1 X149.835 Y102.910 E51.51217 ; skirt
G1 X149.455 Y104.180 E51.60146 ; skirt
G1 X149.265 Y104.720 E51.64003 ; skirt
G1 X148.925 Y105.570 E51.70169 ; skirt
G1 X148.505 Y106.480 E51.76921 ; skirt
G1 X147.935 Y107.540 E51.85028 ; skirt
G1 X147.355 Y108.470 E51.92411 ; skirt
G1 X146.505 Y109.630 E52.02098 ; skirt
G1 X145.715 Y110.550 E52.10267 ; skirt
G1 X144.965 Y111.330 E52.17556 ; skirt
G1 X144.545 Y111.720 E52.21416 ; skirt
G1 X143.915 Y112.260 E52.27006 ; skirt
G1 X142.915 Y113.040 E52.35549 ; skirt
G1 X142.035 Y113.640 E52.42723 ; skirt
G1 X141.535 Y113.940 E52.46651 ; skirt
G1 X140.765 Y114.360 E52.52559 ; skirt
G1 X139.955 Y114.760 E52.58645 ; skirt
G1 X139.565 Y114.930 E52.61511 ; skirt
G1 X138.715 Y115.270 E52.67677 ; skirt
G1 X138.175 Y115.460 E52.71534 ; skirt
G1 X136.905 Y115.840 E52.80463 ; skirt
G1 X136.345 Y115.970 E52.84336 ; skirt
G1 X135.055 Y116.210 E52.93174 ; skirt
G1 X55.455 Y125.780 E58.33233 ; skirt
G1 X53.815 Y125.910 E58.44315 ; skirt
G1 X52.575 Y125.950 E58.52672 ; skirt
G1 X51.255 Y125.920 E58.61566 ; skirt
G1 X50.835 Y125.890 E58.64403 ; skirt
G1 X49.455 Y125.770 E58.73734 ; skirt
G1 X48.385 Y125.630 E58.81003 ; skirt
G1 X46.935 Y125.370 E58.90926 ; skirt
G1 X45.575 Y125.050 E59.00337 ; skirt
G1 X44.215 Y124.660 E59.09868 ; skirt
G1 X42.485 Y124.050 E59.22224 ; skirt
G1 X41.125 Y123.480 E59.32158 ; skirt
G1 X40.155 Y123.010 E59.39418 ; skirt
G1 X38.955 Y122.370 E59.48580 ; skirt
G1 X37.705 Y121.620 E59.58399 ; skirt
G1 X36.215 Y120.600 E59.70562 ; skirt
G1 X35.355 Y119.940 E59.77865 ; skirt
G1 X34.265 Y119.010 E59.87517 ; skirt
G1 X33.215 Y118.030 E59.97192 ; skirt
G1 X31.975 Y116.720 E60.09342 ; skirt
G1 X31.045 Y115.630 E60.18994 ; skirt
G1 X30.385 Y114.770 E60.26297 ; skirt
G1 X29.365 Y113.280 E60.38460 ; skirt
G1 X28.615 Y112.030 E60.48279 ; skirt
G1 X27.975 Y110.830 E60.57441 ; skirt
G1 X27.505 Y109.860 E60.64701 ; skirt
G1 X26.805 Y108.160 E60.77086 ; skirt
G1 X26.325 Y106.770 E60.86991 ; skirt
G1 X26.025 Y105.740 E60.94218 ; skirt
G1 X25.615 Y104.050 E61.05932 ; skirt
G1 X25.415 Y102.990 E61.13198 ; skirt
G1 X25.215 Y101.530 E61.23125 ; skirt
G1 X25.065 Y99.700 E61.35494 ; skirt
G1 X25.045 Y98.620 E61.42770 ; skirt
G1 X25.065 Y97.290 E61.51730 ; skirt
G1 X25.215 Y95.460 E61.64098 ; skirt
G1 X25.415 Y94.000 E61.74025 ; skirt
G1 X25.615 Y92.940 E61.81291 ; skirt
G1 X25.935 Y91.580 E61.90703 ; skirt
G1 X26.325 Y90.220 E62.00233 ; skirt
G1 X26.935 Y88.490 E62.12590 ; skirt
G1 X27.505 Y87.130 E62.22523 ; skirt
G1 X27.975 Y86.160 E62.29784 ; skirt
G1 X28.805 Y84.630 E62.41509 ; skirt
G1 X29.585 Y83.370 E62.51491 ; skirt
G1 X30.385 Y82.220 E62.60928 ; skirt
G1 X31.045 Y81.360 E62.68230 ; skirt
G1 X32.215 Y80.000 E62.80315 ; skirt
G1 X33.215 Y78.960 E62.90034 ; skirt
G1 X34.265 Y77.980 E62.99709 ; skirt
G1 X35.355 Y77.050 E63.09361 ; skirt
G1 X36.215 Y76.390 E63.16663 ; skirt
G1 X37.705 Y75.370 E63.28826 ; skirt
G1 X38.955 Y74.620 E63.38646 ; skirt
G1 X39.789 Y74.172 E63.45023 ; skirt
G1 X39.905 Y74.110 E63.45909 ; skirt
G1 F1800.000 E62.45909 ; retract
G92 E0 ; reset extrusion distance
